X: 110
T: No_198_Skunk_Dance_Song_(b).krn
N: Derived from No_198_Skunk_Dance_Song_(b).krn
%%abc-version 2.0
%%abcx-abcm2ps-target-version 5.9.1 (29 Sep 2008)
%%abc-creator hum2abc beta
%%abcx-conversion-date 2019/03/15 08:38:45
%%humdrum-veritas 347323433
%%humdrum-veritas-data 4141126672
%%linebreak <none>
%%barnumbers 0
L: 1/8
M: 2/4
K: E clef=bass
[K:clef=bass][M:2/4](B,G,) B, z [I:setbarnb 2]| 
(B,G,) A, z | 
G,G, E, z | 
(C,B,,) E, z | 
G,//E,3//G, E, z | 
E,/(E,/B,,) E, z | 
B,3//B,//G, B,/B,3/ | 
(B,/G,/)G, A, z | 
B,//A,3//A, E, z | 
C,B,, E, z | 
G,//G,3// G,//G,3// E, z | 
C,/C,/B,, E, z | 
B,G, B, z | 
(B,/G,/)G, A, z | 
B,/G,/(A,/G,/) E, z | 
E,B,,/B,,/ E, z | 
E,G, E, z | 
C,B,,/B,,/ E, z :|]  



